X: 40923
T: Trip To Bannow, The
R: jig
M: 6/8
K: Gmajor
|:g3 d2 f|g3 afd|g3 d2 e|dcA BGG|
g3 d2 f|g3 afd|g3 d2e|dcA BGG|
G3 D2 c|BGB cAF|G3 D2 G|FGA cAF|
G3 D2 c|BGB cAF|G3 D2 G|FGA cdf:|

